icons/Partly Cloudy--1504934.svg

<svg enable-background="new 0 0 16 16" viewBox="0 0 16 16" xmlns="http://www.w3.org/2000/svg"><path d="m10.5 12h-7.5c-1.654 0-3-1.346-3-3 0-1.667 1.394-3.054 3.039-3 .712-1.225 2.036-2 3.461-2 1.844 0 3.427 1.259 3.871 3.003 1.43-.066 2.629 1.075 2.629 2.497 0 1.379-1.121 2.5-2.5 2.5zm-7.5-5c-1.103 0-2 .897-2 2s.897 2 2 2h7.5c.827 0 1.5-.673 1.5-1.5s-.673-1.5-1.5-1.5c-.146 0-.277.017-.39.05-.14.042-.293.019-.416-.063-.122-.08-.203-.211-.22-.357-.183-1.499-1.461-2.63-2.974-2.63-1.155 0-2.222.68-2.718 1.733-.089.19-.287.304-.499.285-.094-.009-.189-.018-.283-.018z"/><path d="m8 15c-1.319 0-2.608-.372-3.727-1.077-.233-.146-.304-.456-.156-.689.147-.232.456-.304.689-.156.959.603 2.064.922 3.194.922 3.309 0 6-2.691 6-6s-2.691-6-6-6c-2.167 0-4.177 1.178-5.245 3.075-.136.24-.44.326-.681.19-.241-.135-.326-.44-.19-.681 1.244-2.21 3.588-3.584 6.116-3.584 3.859 0 7 3.14 7 7 0 3.859-3.141 7-7 7z"/></svg>

<?xml version="1.0" encoding="utf-8"?>
<!DOCTYPE svg PUBLIC "-//W3C//DTD SVG 1.0//EN" "http://www.w3.org/TR/2001/REC-SVG-20010904/DTD/svg10.dtd">
<svg    fill="#000000" xmlns="http://www.w3.org/2000/svg" xmlns:xlink="http://www.w3.org/1999/xlink" version="1.1" x="0px" y="0px" viewBox="0 0 16 16" style="enable-background:new 0 0 16 16;" xml:space="preserve"><g><path d="M10.5,12H3c-1.654,0-3-1.346-3-3c0-1.667,1.394-3.054,3.039-3C3.751,4.775,5.075,4,6.5,4c1.844,0,3.427,1.259,3.871,3.003   C11.801,6.937,13,8.078,13,9.5C13,10.879,11.879,12,10.5,12z M3,7C1.897,7,1,7.897,1,9c0,1.103,0.897,2,2,2h7.5   c0.827,0,1.5-0.673,1.5-1.5S11.327,8,10.5,8c-0.146,0-0.277,0.017-0.39,0.05C9.97,8.092,9.817,8.069,9.694,7.987   C9.572,7.907,9.491,7.776,9.474,7.63C9.291,6.131,8.013,5,6.5,5C5.345,5,4.278,5.68,3.782,6.733   c-0.089,0.19-0.287,0.304-0.499,0.285C3.189,7.009,3.094,7,3,7z"></path><path d="M8,15c-1.319,0-2.608-0.372-3.727-1.077c-0.233-0.146-0.304-0.456-0.156-0.689c0.147-0.232,0.456-0.304,0.689-0.156   C5.765,13.681,6.87,14,8,14c3.309,0,6-2.691,6-6s-2.691-6-6-6C5.833,2,3.823,3.178,2.755,5.075c-0.136,0.24-0.44,0.326-0.681,0.19   c-0.241-0.135-0.326-0.44-0.19-0.681C3.128,2.374,5.472,1,8,1c3.859,0,7,3.14,7,7C15,11.859,11.859,15,8,15z"></path></g></svg>
